X: 2188
T: Şu Dereden Gece Geçtim
C: (Anonim)
O: Turkey
F: http://compmusic.upf.edu/node/140
N: ussak--turku--devrisureyyasofyani--su_dereden--
N: makam= ussak
N: form= turku
N: usul= devrisureyyasofyani = 10/16
M: 10/16
L: 1/16
K: C _2/4B   
Q: 1/4=240
%%MIDI tuningsystem comma53
z2 c d2 d2 d2 c  | c2 d e2 e d d3  | \
w:  Şu  de re den   |  *  ge ce  geç *  tim    | 
z2 c d2 d e c2 B  | z2 d c B A G d2 c  | 
w:  A man  a *  man   |  a man  *  Me *  mo   | 
e2 d c B {c}B A A2 z  | d c e d c B A A2 z  | \
w:  ca nım  *  *  *  Me *  mo    |  SAZ  | 
z2 G A B c d e2 d  | 
w:  E ğil *  dim  *  su  | 
a g f e d c B {c}B A G  | z2 c d2 d2 c B A  | \
w:  yun *  dan  *  iç *  *  *  tim    |  A man  a man   | 
A2 G e d c B d B A  | 
w:  öm *  rüm  *  Me *  *  mo   | 
A4-A z4-z  | |


